X: 11
T: Kilrenny Jig
C: Alastair Hunter
P: Tune for "The Pele Tower"
B: Roy Goldring "14 Social Dances for 2000"
R: jig
Z: 2015 John Chambers <jc:trillian.mit.edu>
M: 6/8
L: 1/8
K: F
cB |:\
"F"A2F FEF | "Bb" f2d "F/a"cAF | "Gm"GBA G2F | "Gm"D2F "C7"DCC |
"F"A2F FEF | "Bb"f2d "F/a"cAF | "Gm"D2B "C7"EDE |1 "F"F3 FcB |2 "F"F3 F2 ||
g |\
"F"a2f "C"gfe | "Bb"fed "F"c2A | "Gm"Gdd d2e | "Gm"f2d "C7"cAc |
"F"agf "C"gfe | "Bb"fed "C7"c2B | "F7"A2F | "Bb"GFD | "F"CFF F2 ||
f |\
"F"a2f "C"gfe | "Bb"fed "F"c2A | "Gm"Gdd d2e | "Gm"f2d "C7"cAc |
"F"faf "C"ege | "Bb"fed "C7"c2B | "F7"A2F "Bb"FDD | "F"CFF F |]
